img/logo.svg

<svg width="204" height="48" viewBox="0 0 204 48" fill="none" xmlns="http://www.w3.org/2000/svg">
<path d="M62.262 22.6695C62.5581 24.5735 63.1558 25.9116 64.0549 26.6838C64.9646 27.4454 66.2657 27.8262 67.9582 27.8262C69.7882 27.8262 71.2321 27.1122 72.2899 25.6842C73.3583 24.2562 73.903 22.2728 73.9242 19.7341H64.8324V17.2271H73.9242C73.9242 14.7201 73.3741 12.7367 72.274 11.277C71.1845 9.8172 69.656 9.08732 67.6885 9.08732C66.1018 9.08732 64.8641 9.49986 63.9756 10.3249C63.0976 11.15 62.5264 12.4829 62.262 14.3234H59.1996C59.4429 11.9011 60.305 10.0076 61.786 8.64304C63.2669 7.26791 65.2344 6.58034 67.6885 6.58034C69.5502 6.58034 71.1845 7.02461 72.5914 7.91316C74.0088 8.79114 75.0931 10.0499 75.8441 11.6895C76.6057 13.3185 76.9865 15.1961 76.9865 17.3223V19.623C76.9865 21.7492 76.611 23.6268 75.86 25.2558C75.1089 26.8848 74.0458 28.1383 72.6707 29.0162C71.3061 29.8836 69.7353 30.3173 67.9582 30.3173C65.4406 30.3173 63.4203 29.6562 61.897 28.334C60.3844 27.0011 59.4852 25.113 59.1996 22.6695H62.262ZM87.4429 19.623H84.6344V30H81.5879V6.89768H84.6344V17.0843H87.0144L95.0907 6.89768H98.883L90.0609 18.0998L99.5335 30H95.8048L87.4429 19.623ZM118.812 22.6695C118.526 25.113 117.622 27.0011 116.099 28.334C114.586 29.6562 112.571 30.3173 110.053 30.3173C107.324 30.3173 105.135 29.3389 103.484 27.3819C101.845 25.425 101.025 22.807 101.025 19.5278V17.3064C101.025 15.1591 101.406 13.2709 102.167 11.6419C102.94 10.0129 104.029 8.76469 105.436 7.8973C106.843 7.01932 108.472 6.58034 110.323 6.58034C112.777 6.58034 114.745 7.26791 116.226 8.64304C117.706 10.0076 118.569 11.9011 118.812 14.3234H115.75C115.485 12.4829 114.909 11.15 114.02 10.3249C113.142 9.49986 111.91 9.08732 110.323 9.08732C108.377 9.08732 106.848 9.80662 105.737 11.2452C104.637 12.6838 104.087 14.7307 104.087 17.3858V19.623C104.087 22.13 104.611 24.1239 105.658 25.6048C106.705 27.0858 108.17 27.8262 110.053 27.8262C111.746 27.8262 113.042 27.4454 113.941 26.6838C114.85 25.9116 115.453 24.5735 115.75 22.6695H118.812ZM140.629 30H137.567V9.40466H126.174V30H123.128V6.89768H140.629V30ZM159.241 19.3215H149.229V27.5089H160.859V30H146.182V6.89768H160.701V9.40466H149.229V16.8304H159.241V19.3215ZM167.698 20.9558V30H164.652V6.89768H173.172C175.7 6.89768 177.678 7.54293 179.106 8.83345C180.545 10.124 181.264 11.8323 181.264 13.9585C181.264 16.201 180.561 17.9305 179.154 19.147C177.758 20.3529 175.753 20.9558 173.14 20.9558H167.698ZM167.698 18.4647H173.172C174.801 18.4647 176.049 18.0839 176.917 17.3223C177.784 16.5501 178.218 15.4394 178.218 13.9902C178.218 12.6151 177.784 11.515 176.917 10.6899C176.049 9.8648 174.859 9.43639 173.347 9.40466H167.698V18.4647ZM201.114 9.40466H193.688V30H190.658V9.40466H183.248V6.89768H201.114V9.40466Z" fill="white" fill-opacity="0.9"/>
<path d="M62.4503 41.0198H61.52V44.4573H60.5108V36.8043H61.52V40.1788H62.3084L64.9838 36.8043H66.24L63.3176 40.5152L66.4555 44.4573H65.2203L62.4503 41.0198ZM66.8234 41.5611C66.8234 41.004 66.932 40.5029 67.1493 40.0579C67.3701 39.6129 67.6749 39.2695 68.0639 39.0277C68.4563 38.7859 68.9031 38.665 69.4042 38.665C70.1786 38.665 70.8041 38.9331 71.2806 39.4692C71.7607 40.0053 72.0007 40.7184 72.0007 41.6084V41.6768C72.0007 42.2304 71.8938 42.728 71.6801 43.1695C71.4698 43.6075 71.1667 43.9492 70.7708 44.1945C70.3783 44.4398 69.9263 44.5624 69.4147 44.5624C68.6438 44.5624 68.0183 44.2943 67.5383 43.7582C67.0617 43.2221 66.8234 42.5125 66.8234 41.6295V41.5611ZM67.8011 41.6768C67.8011 42.3075 67.9465 42.8139 68.2373 43.1958C68.5317 43.5777 68.9241 43.7687 69.4147 43.7687C69.9088 43.7687 70.3012 43.576 70.5921 43.1905C70.8829 42.8016 71.0283 42.2585 71.0283 41.5611C71.0283 40.9374 70.8794 40.4328 70.5816 40.0474C70.2872 39.6584 69.8948 39.4639 69.4042 39.4639C68.9241 39.4639 68.5369 39.6549 68.2426 40.0369C67.9482 40.4188 67.8011 40.9654 67.8011 41.6768ZM77.8666 44.4573H76.8942V42.0289H74.2819V44.4573H73.3042V38.7701H74.2819V41.2353H76.8942V38.7701H77.8666V44.4573ZM81.7141 43.7687C82.061 43.7687 82.3641 43.6636 82.6234 43.4534C82.8827 43.2431 83.0264 42.9803 83.0544 42.6649H83.9742C83.9567 42.9908 83.8446 43.3009 83.6378 43.5953C83.4311 43.8896 83.1543 44.1244 82.8073 44.2996C82.4639 44.4748 82.0995 44.5624 81.7141 44.5624C80.9397 44.5624 80.3229 44.3048 79.8639 43.7897C79.4084 43.2711 79.1806 42.5633 79.1806 41.6663V41.5033C79.1806 40.9497 79.2822 40.4574 79.4855 40.0263C79.6887 39.5953 79.9795 39.2607 80.358 39.0224C80.7399 38.7841 81.1902 38.665 81.7088 38.665C82.3466 38.665 82.8757 38.856 83.2962 39.2379C83.7202 39.6199 83.9462 40.1157 83.9742 40.7254H83.0544C83.0264 40.3575 82.8862 40.0561 82.6339 39.8214C82.3851 39.5831 82.0767 39.4639 81.7088 39.4639C81.2147 39.4639 80.831 39.6426 80.5577 40.0001C80.2879 40.354 80.153 40.8673 80.153 41.5401V41.7241C80.153 42.3793 80.2879 42.8839 80.5577 43.2379C80.8275 43.5918 81.213 43.7687 81.7141 43.7687ZM88.5786 44.4573C88.5225 44.3451 88.477 44.1454 88.4419 43.8581C87.9899 44.3276 87.4503 44.5624 86.823 44.5624C86.2624 44.5624 85.8016 44.4047 85.4407 44.0893C85.0833 43.7705 84.9045 43.3675 84.9045 42.8804C84.9045 42.2882 85.1288 41.8292 85.5773 41.5033C86.0294 41.1739 86.6636 41.0092 87.4801 41.0092H88.4262V40.5625C88.4262 40.2226 88.3245 39.9528 88.1213 39.753C87.9181 39.5498 87.6185 39.4482 87.2225 39.4482C86.8756 39.4482 86.5848 39.5358 86.35 39.711C86.1152 39.8862 85.9978 40.0982 85.9978 40.347H85.0202C85.0202 40.0631 85.1201 39.7898 85.3198 39.527C85.523 39.2607 85.7963 39.0505 86.1397 38.8963C86.4866 38.7421 86.8668 38.665 87.2803 38.665C87.9356 38.665 88.4489 38.8297 88.8204 39.1591C89.1918 39.485 89.3845 39.9352 89.3986 40.5099V43.1275C89.3986 43.6496 89.4651 44.0648 89.5983 44.3732V44.4573H88.5786ZM86.965 43.7162C87.2698 43.7162 87.5589 43.6373 87.8322 43.4796C88.1055 43.3219 88.3035 43.117 88.4262 42.8647V41.6978H87.664C86.4726 41.6978 85.8769 42.0465 85.8769 42.7438C85.8769 43.0486 85.9786 43.2869 86.1818 43.4586C86.385 43.6303 86.6461 43.7162 86.965 43.7162ZM95.585 38.7701V44.4573H94.6074V39.5743H92.6731L92.5575 41.7031C92.4944 42.6807 92.3297 43.3798 92.0634 43.8003C91.8006 44.2207 91.3819 44.4398 90.8072 44.4573H90.4182V43.6005L90.6968 43.5795C91.0122 43.5445 91.2382 43.3622 91.3749 43.0329C91.5115 42.7035 91.5991 42.0938 91.6377 41.2037L91.7428 38.7701H95.585ZM101.372 39.5586H99.4641V44.4573H98.4917V39.5586H96.6205V38.7701H101.372V39.5586ZM105.997 38.7701H106.97V44.4573H105.997V40.3102L103.375 44.4573H102.402V38.7701H103.375V42.9225L105.997 38.7701ZM113.177 44.4573H112.205V42.0289H109.593V44.4573H108.615V38.7701H109.593V41.2353H112.205V38.7701H113.177V44.4573ZM118.418 39.5743H115.795V44.4573H114.817V38.7701H118.418V39.5743ZM118.901 41.5611C118.901 41.004 119.01 40.5029 119.227 40.0579C119.448 39.6129 119.753 39.2695 120.142 39.0277C120.534 38.7859 120.981 38.665 121.482 38.665C122.256 38.665 122.882 38.9331 123.358 39.4692C123.839 40.0053 124.079 40.7184 124.079 41.6084V41.6768C124.079 42.2304 123.972 42.728 123.758 43.1695C123.548 43.6075 123.245 43.9492 122.849 44.1945C122.456 44.4398 122.004 44.5624 121.493 44.5624C120.722 44.5624 120.096 44.2943 119.616 43.7582C119.14 43.2221 118.901 42.5125 118.901 41.6295V41.5611ZM119.879 41.6768C119.879 42.3075 120.024 42.8139 120.315 43.1958C120.61 43.5777 121.002 43.7687 121.493 43.7687C121.987 43.7687 122.379 43.576 122.67 43.1905C122.961 42.8016 123.106 42.2585 123.106 41.5611C123.106 40.9374 122.957 40.4328 122.659 40.0474C122.365 39.6584 121.973 39.4639 121.482 39.4639C121.002 39.4639 120.615 39.6549 120.32 40.0369C120.026 40.4188 119.879 40.9654 119.879 41.6768ZM125.387 44.4573V38.7701H127.605C128.362 38.7701 128.942 38.9033 129.345 39.1696C129.752 39.4324 129.955 39.8196 129.955 40.3312C129.955 40.594 129.876 40.8323 129.718 41.046C129.561 41.2563 129.328 41.4175 129.019 41.5296C129.363 41.6102 129.638 41.7679 129.845 42.0027C130.055 42.2374 130.16 42.5178 130.16 42.8436C130.16 43.3657 129.967 43.7652 129.582 44.042C129.2 44.3189 128.658 44.4573 127.958 44.4573H125.387ZM126.36 41.9606V43.6741H127.968C128.375 43.6741 128.678 43.5988 128.877 43.4481C129.081 43.2974 129.182 43.0854 129.182 42.8121C129.182 42.2444 128.765 41.9606 127.931 41.9606H126.36ZM126.36 41.1827H127.616C128.527 41.1827 128.983 40.9164 128.983 40.3838C128.983 39.8511 128.552 39.5761 127.69 39.5586H126.36V41.1827ZM134.959 44.4573C134.903 44.3451 134.857 44.1454 134.822 43.8581C134.37 44.3276 133.83 44.5624 133.203 44.5624C132.643 44.5624 132.182 44.4047 131.821 44.0893C131.463 43.7705 131.285 43.3675 131.285 42.8804C131.285 42.2882 131.509 41.8292 131.958 41.5033C132.41 41.1739 133.044 41.0092 133.86 41.0092H134.806V40.5625C134.806 40.2226 134.705 39.9528 134.502 39.753C134.298 39.5498 133.999 39.4482 133.603 39.4482C133.256 39.4482 132.965 39.5358 132.73 39.711C132.495 39.8862 132.378 40.0982 132.378 40.347H131.4C131.4 40.0631 131.5 39.7898 131.7 39.527C131.903 39.2607 132.177 39.0505 132.52 38.8963C132.867 38.7421 133.247 38.665 133.661 38.665C134.316 38.665 134.829 38.8297 135.201 39.1591C135.572 39.485 135.765 39.9352 135.779 40.5099V43.1275C135.779 43.6496 135.845 44.0648 135.978 44.3732V44.4573H134.959ZM133.345 43.7162C133.65 43.7162 133.939 43.6373 134.212 43.4796C134.486 43.3219 134.684 43.117 134.806 42.8647V41.6978H134.044C132.853 41.6978 132.257 42.0465 132.257 42.7438C132.257 43.0486 132.359 43.2869 132.562 43.4586C132.765 43.6303 133.026 43.7162 133.345 43.7162ZM141.65 38.7701V44.4573H140.672V42.2444H139.206L137.865 44.4573H136.814L138.244 42.0973C137.879 41.9641 137.599 41.7591 137.403 41.4823C137.21 41.202 137.114 40.8761 137.114 40.5047C137.114 39.986 137.308 39.5691 137.697 39.2537C138.086 38.9348 138.607 38.7736 139.258 38.7701H141.65ZM138.091 40.5152C138.091 40.792 138.186 41.0163 138.375 41.188C138.565 41.3562 138.815 41.442 139.127 41.4455H140.672V39.5586H139.274C138.913 39.5586 138.626 39.6479 138.412 39.8266C138.198 40.0018 138.091 40.2313 138.091 40.5152ZM147.652 42.0342H146.943V44.4573H145.965V38.7701H146.943V41.1774H147.579L149.492 38.7701H150.669L148.42 41.5033L150.859 44.4573H149.623L147.652 42.0342ZM151.321 41.5611C151.321 41.004 151.43 40.5029 151.647 40.0579C151.868 39.6129 152.173 39.2695 152.562 39.0277C152.954 38.7859 153.401 38.665 153.902 38.665C154.676 38.665 155.302 38.9331 155.778 39.4692C156.258 40.0053 156.498 40.7184 156.498 41.6084V41.6768C156.498 42.2304 156.392 42.728 156.178 43.1695C155.968 43.6075 155.665 43.9492 155.269 44.1945C154.876 44.4398 154.424 44.5624 153.912 44.5624C153.142 44.5624 152.516 44.2943 152.036 43.7582C151.559 43.2221 151.321 42.5125 151.321 41.6295V41.5611ZM152.299 41.6768C152.299 42.3075 152.444 42.8139 152.735 43.1958C153.029 43.5777 153.422 43.7687 153.912 43.7687C154.407 43.7687 154.799 43.576 155.09 43.1905C155.381 42.8016 155.526 42.2585 155.526 41.5611C155.526 40.9374 155.377 40.4328 155.079 40.0474C154.785 39.6584 154.393 39.4639 153.902 39.4639C153.422 39.4639 153.035 39.6549 152.74 40.0369C152.446 40.4188 152.299 40.9654 152.299 41.6768ZM160.992 43.1695L162.927 38.7701H164.141V44.4573H163.169V40.3207L161.329 44.4573H160.656L158.78 40.2313V44.4573H157.807V38.7701H159.069L160.992 43.1695ZM170.359 44.4573H169.387V39.5743H166.769V44.4573H165.791V38.7701H170.359V44.4573ZM175.431 44.4573C175.375 44.3451 175.329 44.1454 175.294 43.8581C174.842 44.3276 174.303 44.5624 173.676 44.5624C173.115 44.5624 172.654 44.4047 172.293 44.0893C171.936 43.7705 171.757 43.3675 171.757 42.8804C171.757 42.2882 171.981 41.8292 172.43 41.5033C172.882 41.1739 173.516 41.0092 174.333 41.0092H175.279V40.5625C175.279 40.2226 175.177 39.9528 174.974 39.753C174.771 39.5498 174.471 39.4482 174.075 39.4482C173.728 39.4482 173.437 39.5358 173.202 39.711C172.968 39.8862 172.85 40.0982 172.85 40.347H171.873C171.873 40.0631 171.973 39.7898 172.172 39.527C172.376 39.2607 172.649 39.0505 172.992 38.8963C173.339 38.7421 173.719 38.665 174.133 38.665C174.788 38.665 175.301 38.8297 175.673 39.1591C176.044 39.485 176.237 39.9352 176.251 40.5099V43.1275C176.251 43.6496 176.318 44.0648 176.451 44.3732V44.4573H175.431ZM173.817 43.7162C174.122 43.7162 174.411 43.6373 174.685 43.4796C174.958 43.3219 175.156 43.117 175.279 42.8647V41.6978H174.517C173.325 41.6978 172.729 42.0465 172.729 42.7438C172.729 43.0486 172.831 43.2869 173.034 43.4586C173.238 43.6303 173.499 43.7162 173.817 43.7162ZM182.422 44.4573H181.449V42.0289H178.837V44.4573H177.859V38.7701H178.837V41.2353H181.449V38.7701H182.422V44.4573ZM187.667 38.7701H188.64V44.4573H187.667V40.3102L185.045 44.4573H184.072V38.7701H185.045V42.9225L187.667 38.7701ZM194.548 38.7701V44.4573H193.57V42.2444H192.104L190.763 44.4573H189.712L191.142 42.0973C190.777 41.9641 190.497 41.7591 190.301 41.4823C190.108 41.202 190.012 40.8761 190.012 40.5047C190.012 39.986 190.206 39.5691 190.595 39.2537C190.984 38.9348 191.504 38.7736 192.156 38.7701H194.548ZM190.989 40.5152C190.989 40.792 191.084 41.0163 191.273 41.188C191.462 41.3562 191.713 41.442 192.025 41.4455H193.57V39.5586H192.172C191.811 39.5586 191.524 39.6479 191.31 39.8266C191.096 40.0018 190.989 40.2313 190.989 40.5152Z" fill="white" fill-opacity="0.9"/>
<path fill-rule="evenodd" clip-rule="evenodd" d="M24.0002 47C36.7027 47 47.0002 36.4787 47.0002 23.5C47.0002 10.5213 36.7027 0 24.0002 0C13.1514 0 4.05687 7.67456 1.63354 18H4.91551C7.46404 9.88579 15.0446 4 23.9999 4C35.0456 4 43.9999 12.9543 43.9999 24C43.9999 35.0457 35.0456 44 23.9999 44C15.0446 44 7.46404 38.1142 4.91551 30H1.89131C4.65098 39.8171 13.5046 47 24.0002 47Z" fill="#FFA620"/>
<rect x="1" y="22" width="22" height="4" fill="#FFA620"/>
</svg>

<svg width="204" height="48" fill="none" xmlns="http://www.w3.org/2000/svg"><path d="M62.262 22.67c.296 1.903.894 3.242 1.793 4.014.91.761 2.21 1.142 3.903 1.142 1.83 0 3.274-.714 4.332-2.142 1.068-1.428 1.613-3.411 1.634-5.95h-9.092v-2.507h9.092c0-2.507-.55-4.49-1.65-5.95-1.09-1.46-2.618-2.19-4.585-2.19-1.587 0-2.825.413-3.713 1.238-.878.825-1.45 2.158-1.714 3.998H59.2c.243-2.422 1.105-4.315 2.586-5.68 1.48-1.375 3.448-2.063 5.903-2.063 1.861 0 3.496.445 4.902 1.333 1.418.878 2.502 2.137 3.253 3.777.762 1.629 1.143 3.506 1.143 5.632v2.301c0 2.126-.376 4.004-1.127 5.633-.751 1.629-1.814 2.882-3.19 3.76-1.364.868-2.935 1.301-4.712 1.301-2.517 0-4.538-.66-6.061-1.983-1.513-1.333-2.412-3.221-2.697-5.665h3.062zm25.18-3.047h-2.808V30h-3.046V6.898h3.046v10.186h2.38l8.077-10.186h3.792L90.061 18.1 99.533 30h-3.728l-8.362-10.377zm31.37 3.046c-.286 2.444-1.19 4.332-2.713 5.665-1.513 1.322-3.528 1.983-6.046 1.983-2.729 0-4.918-.978-6.569-2.935-1.639-1.957-2.459-4.575-2.459-7.854v-2.222c0-2.147.381-4.035 1.142-5.664.773-1.63 1.862-2.877 3.269-3.745 1.407-.878 3.036-1.317 4.887-1.317 2.454 0 4.422.688 5.903 2.063 1.48 1.365 2.343 3.258 2.586 5.68h-3.062c-.265-1.84-.841-3.173-1.73-3.998-.878-.825-2.11-1.238-3.697-1.238-1.946 0-3.475.72-4.586 2.158-1.1 1.439-1.65 3.486-1.65 6.14v2.238c0 2.507.524 4.5 1.571 5.982 1.047 1.48 2.512 2.221 4.395 2.221 1.693 0 2.989-.38 3.888-1.142.909-.772 1.512-2.11 1.809-4.015h3.062zM140.629 30h-3.062V9.405h-11.393V30h-3.046V6.898h17.501V30zm18.612-10.678h-10.012v8.187h11.63V30h-14.677V6.898h14.519v2.507h-11.472v7.425h10.012v2.492zm8.457 1.634V30h-3.046V6.898h8.52c2.528 0 4.506.645 5.934 1.935 1.439 1.291 2.158 3 2.158 5.126 0 2.242-.703 3.971-2.11 5.188-1.396 1.206-3.401 1.809-6.014 1.809h-5.442zm0-2.491h5.474c1.629 0 2.877-.381 3.745-1.143.867-.772 1.301-1.883 1.301-3.332 0-1.375-.434-2.475-1.301-3.3-.868-.825-2.058-1.254-3.57-1.285h-5.649v9.06zm33.416-9.06h-7.426V30h-3.03V9.405h-7.41V6.898h17.866v2.507zM62.45 41.02h-.93v3.437h-1.01v-7.653h1.01v3.375h.788l2.676-3.375h1.256l-2.922 3.711 3.138 3.942H65.22l-2.77-3.437zm4.373.541c0-.557.109-1.058.326-1.503.221-.445.526-.788.915-1.03.392-.242.84-.363 1.34-.363.775 0 1.4.268 1.877.804.48.536.72 1.25.72 2.14v.068c0 .553-.107 1.051-.32 1.492-.211.439-.514.78-.91 1.026a2.505 2.505 0 01-1.356.367c-.771 0-1.397-.268-1.877-.804-.476-.536-.715-1.245-.715-2.129v-.068zm.978.116c0 .63.145 1.137.436 1.519.295.382.687.573 1.178.573.494 0 .886-.193 1.177-.578.29-.39.436-.933.436-1.63 0-.624-.149-1.128-.446-1.514a1.403 1.403 0 00-1.178-.583c-.48 0-.867.19-1.161.573-.295.382-.442.928-.442 1.64zm10.066 2.78h-.973V42.03h-2.612v2.428h-.978V38.77h.978v2.465h2.612V38.77h.973v5.687zm3.847-.688a1.4 1.4 0 00.91-.316c.259-.21.402-.473.43-.788h.92c-.017.326-.13.636-.336.93a2.21 2.21 0 01-.83.705 2.373 2.373 0 01-1.094.262c-.774 0-1.391-.257-1.85-.772-.456-.519-.683-1.227-.683-2.124v-.163c0-.553.101-1.046.305-1.477.203-.43.493-.765.872-1.004.382-.238.832-.357 1.35-.357.639 0 1.168.191 1.588.573.424.382.65.878.678 1.487h-.92a1.325 1.325 0 00-.42-.904 1.286 1.286 0 00-.925-.357c-.494 0-.878.179-1.151.536-.27.354-.405.867-.405 1.54v.184c0 .655.135 1.16.405 1.514.27.354.655.53 1.156.53zm6.865.688c-.056-.112-.102-.312-.137-.599-.452.47-.992.704-1.619.704-.56 0-1.021-.157-1.382-.473a1.55 1.55 0 01-.537-1.209c0-.592.225-1.05.673-1.377.452-.33 1.087-.494 1.903-.494h.946v-.447c0-.34-.102-.61-.305-.809-.203-.203-.502-.305-.898-.305-.347 0-.638.088-.873.263-.235.175-.352.387-.352.636h-.978c0-.284.1-.557.3-.82.203-.266.476-.477.82-.63a2.776 2.776 0 011.14-.232c.656 0 1.169.165 1.54.494.372.326.565.776.579 1.35v2.618c0 .523.066.938.2 1.246v.084h-1.02zm-1.614-.74c.305 0 .594-.08.867-.237.274-.158.472-.363.594-.615v-1.167h-.762c-1.191 0-1.787.349-1.787 1.046 0 .305.102.543.305.715.203.171.464.257.783.257zm8.62-4.947v5.687h-.978v-4.883h-1.934l-.115 2.13c-.064.977-.228 1.676-.495 2.096-.262.42-.681.64-1.256.657h-.389V43.6l.279-.02c.315-.035.541-.218.678-.547.136-.33.224-.94.263-1.83l.105-2.433h3.842zm5.787.789h-1.908v4.898h-.972V39.56H96.62v-.789h4.751v.789zm4.625-.789h.973v5.687h-.973V40.31l-2.622 4.147h-.973V38.77h.973v4.152l2.622-4.152zm7.18 5.687h-.972V42.03h-2.612v2.428h-.978V38.77h.978v2.465h2.612V38.77h.972v5.687zm5.241-4.883h-2.623v4.883h-.978V38.77h3.601v.804zm.483 1.987c0-.557.109-1.058.326-1.503.221-.445.526-.788.915-1.03a2.5 2.5 0 011.34-.363c.774 0 1.4.268 1.876.804.481.536.721 1.25.721 2.14v.068c0 .553-.107 1.051-.321 1.492-.21.439-.513.78-.909 1.026a2.507 2.507 0 01-1.356.367c-.771 0-1.397-.268-1.877-.804-.476-.536-.715-1.245-.715-2.129v-.068zm.978.116c0 .63.145 1.137.436 1.519.295.382.687.573 1.178.573.494 0 .886-.193 1.177-.578.291-.39.436-.933.436-1.63 0-.624-.149-1.128-.447-1.514a1.401 1.401 0 00-1.177-.583c-.48 0-.867.19-1.162.573-.294.382-.441.928-.441 1.64zm5.508 2.78V38.77h2.218c.757 0 1.337.133 1.74.4.407.262.61.65.61 1.161 0 .263-.079.501-.237.715-.157.21-.39.371-.699.484.344.08.619.238.826.473.21.234.315.515.315.84 0 .523-.193.922-.578 1.199-.382.277-.924.415-1.624.415h-2.571zm.973-2.496v1.713h1.608c.407 0 .71-.075.909-.226.204-.15.305-.363.305-.636 0-.568-.417-.851-1.251-.851h-1.571zm0-.778h1.256c.911 0 1.367-.267 1.367-.8 0-.532-.431-.807-1.293-.824h-1.33v1.624zm8.599 3.274c-.056-.112-.102-.312-.137-.599-.452.47-.992.704-1.619.704-.56 0-1.021-.157-1.382-.473a1.548 1.548 0 01-.536-1.209c0-.592.224-1.05.673-1.377.452-.33 1.086-.494 1.902-.494h.946v-.447c0-.34-.101-.61-.304-.809-.204-.203-.503-.305-.899-.305-.347 0-.638.088-.873.263-.235.175-.352.387-.352.636h-.978c0-.284.1-.557.3-.82.203-.266.477-.477.82-.63a2.777 2.777 0 011.141-.232c.655 0 1.168.165 1.54.494.371.326.564.776.578 1.35v2.618c0 .523.066.938.199 1.246v.084h-1.019zm-1.614-.74c.305 0 .594-.08.867-.237.274-.158.472-.363.594-.615v-1.167h-.762c-1.191 0-1.787.349-1.787 1.046 0 .305.102.543.305.715.203.171.464.257.783.257zm8.305-4.947v5.687h-.978v-2.213h-1.466l-1.341 2.213h-1.051l1.43-2.36c-.365-.133-.645-.338-.841-.615a1.681 1.681 0 01-.289-.977c0-.519.194-.936.583-1.251.389-.32.91-.48 1.561-.484h2.392zm-3.559 1.745c0 .277.095.501.284.673.19.168.44.254.752.258h1.545v-1.887h-1.398c-.361 0-.648.089-.862.268a.847.847 0 00-.321.688zm9.561 1.52h-.709v2.422h-.978V38.77h.978v2.407h.636l1.913-2.407h1.177l-2.249 2.733 2.439 2.954h-1.236l-1.971-2.423zm3.669-.474c0-.557.109-1.058.326-1.503.221-.445.526-.788.915-1.03a2.5 2.5 0 011.34-.363c.774 0 1.4.268 1.876.804.48.536.72 1.25.72 2.14v.068c0 .553-.106 1.051-.32 1.492-.21.439-.513.78-.909 1.026a2.508 2.508 0 01-1.357.367c-.77 0-1.396-.268-1.876-.804-.477-.536-.715-1.245-.715-2.129v-.068zm.978.116c0 .63.145 1.137.436 1.519.294.382.687.573 1.177.573.495 0 .887-.193 1.178-.578.291-.39.436-.933.436-1.63 0-.624-.149-1.128-.447-1.514a1.401 1.401 0 00-1.177-.583c-.48 0-.867.19-1.162.573-.294.382-.441.928-.441 1.64zm8.693 1.492l1.935-4.399h1.214v5.687h-.972v-4.136l-1.84 4.136h-.673l-1.876-4.226v4.226h-.973V38.77h1.262l1.923 4.4zm9.367 1.288h-.972v-4.883h-2.618v4.883h-.978V38.77h4.568v5.687zm5.072 0c-.056-.112-.102-.312-.137-.599-.452.47-.991.704-1.618.704-.561 0-1.022-.157-1.383-.473a1.551 1.551 0 01-.536-1.209c0-.592.224-1.05.673-1.377.452-.33 1.086-.494 1.903-.494h.946v-.447c0-.34-.102-.61-.305-.809-.203-.203-.503-.305-.899-.305-.347 0-.638.088-.873.263-.234.175-.352.387-.352.636h-.977c0-.284.1-.557.299-.82.204-.266.477-.477.82-.63a2.777 2.777 0 011.141-.232c.655 0 1.168.165 1.54.494.371.326.564.776.578 1.35v2.618c0 .523.067.938.2 1.246v.084h-1.02zm-1.614-.74c.305 0 .594-.08.868-.237.273-.158.471-.363.594-.615v-1.167h-.762c-1.192 0-1.788.349-1.788 1.046 0 .305.102.543.305.715.204.171.465.257.783.257zm8.605.74h-.973V42.03h-2.612v2.428h-.978V38.77h.978v2.465h2.612V38.77h.973v5.687zm5.245-5.687h.973v5.687h-.973V40.31l-2.622 4.147h-.973V38.77h.973v4.152l2.622-4.152zm6.881 0v5.687h-.978v-2.213h-1.466l-1.341 2.213h-1.051l1.43-2.36c-.365-.133-.645-.338-.841-.615a1.681 1.681 0 01-.289-.977c0-.519.194-.936.583-1.251.389-.32.909-.48 1.561-.484h2.392zm-3.559 1.745c0 .277.095.501.284.673.189.168.44.254.752.258h1.545v-1.887h-1.398c-.361 0-.648.089-.862.268a.847.847 0 00-.321.688z" fill="#fff" fill-opacity=".9"/><path fill-rule="evenodd" clip-rule="evenodd" d="M24 47c12.703 0 23-10.521 23-23.5S36.703 0 24 0C13.151 0 4.057 7.675 1.634 18h3.282C7.464 9.886 15.045 4 24 4c11.046 0 20 8.954 20 20s-8.954 20-20 20c-8.955 0-16.536-5.886-19.084-14H1.89c2.76 9.817 11.614 17 22.11 17z" fill="#FFA620"/><path fill="#FFA620" d="M1 22h22v4H1z"/></svg>
